static/img/kroki/b0f5ce5a7ab2a4de3d54decb781b3db3.svg

<?xml version="1.0" encoding="us-ascii" standalone="no"?><svg xmlns="http://www.w3.org/2000/svg" xmlns:xlink="http://www.w3.org/1999/xlink" contentStyleType="text/css" height="252px" preserveAspectRatio="none" style="width:1494px;height:252px;" version="1.1" viewBox="0 0 1494 252" width="1494px" zoomAndPan="magnify"><defs/><g><!--class azure_machine_learning_compute--><g id="elem_azure_machine_learning_compute"><rect codeLine="23" fill="#3D176E" height="39.7891" id="azure_machine_learning_compute" rx="2.5" ry="2.5" style="stroke:#000D19;stroke-width:0.5;" width="329" x="535" y="106.79"/><ellipse cx="550" cy="126.6845" fill="#ADD1B2" rx="11" ry="11" style="stroke:#181818;stroke-width:1.0;"/><path d="M552.9688,132.3252 Q552.3906,132.622 551.75,132.7627 Q551.1094,132.9189 550.4063,132.9189 Q547.9063,132.9189 546.5781,131.2783 Q545.2656,129.622 545.2656,126.497 Q545.2656,123.372 546.5781,121.7158 Q547.9063,120.0595 550.4063,120.0595 Q551.1094,120.0595 551.75,120.2158 Q552.4063,120.372 552.9688,120.6689 L552.9688,123.3877 Q552.3438,122.8095 551.75,122.5439 Q551.1563,122.2627 550.5313,122.2627 Q549.1875,122.2627 548.5,123.3408 Q547.8125,124.4033 547.8125,126.497 Q547.8125,128.5908 548.5,129.6689 Q549.1875,130.7314 550.5313,130.7314 Q551.1563,130.7314 551.75,130.4658 Q552.3438,130.1845 552.9688,129.6064 L552.9688,132.3252 Z " fill="#000000"/><text fill="#D9B8FF" font-family="Helvetica" font-size="17" lengthAdjust="spacing" textLength="287" x="569" y="132.5698">azure_machine_learning_compute</text></g><!--class azure_machine_learning_job--><g id="elem_azure_machine_learning_job"><rect codeLine="26" fill="#3D176E" height="39.7891" id="azure_machine_learning_job" rx="2.5" ry="2.5" style="stroke:#000D19;stroke-width:0.5;" width="281" x="667" y="206.58"/><ellipse cx="682" cy="226.4745" fill="#ADD1B2" rx="11" ry="11" style="stroke:#181818;stroke-width:1.0;"/><path d="M684.9688,232.1152 Q684.3906,232.412 683.75,232.5527 Q683.1094,232.7089 682.4063,232.7089 Q679.9063,232.7089 678.5781,231.0683 Q677.2656,229.412 677.2656,226.287 Q677.2656,223.162 678.5781,221.5058 Q679.9063,219.8495 682.4063,219.8495 Q683.1094,219.8495 683.75,220.0058 Q684.4063,220.162 684.9688,220.4589 L684.9688,223.1777 Q684.3438,222.5995 683.75,222.3339 Q683.1563,222.0527 682.5313,222.0527 Q681.1875,222.0527 680.5,223.1308 Q679.8125,224.1933 679.8125,226.287 Q679.8125,228.3808 680.5,229.4589 Q681.1875,230.5214 682.5313,230.5214 Q683.1563,230.5214 683.75,230.2558 Q684.3438,229.9745 684.9688,229.3964 L684.9688,232.1152 Z " fill="#000000"/><text fill="#D9B8FF" font-family="Helvetica" font-size="17" lengthAdjust="spacing" textLength="239" x="701" y="232.3598">azure_machine_learning_job</text></g><!--class azure_machine_learning_registry_component_version--><g id="elem_azure_machine_learning_registry_component_version"><rect codeLine="29" fill="#3D176E" height="39.7891" id="azure_machine_learning_registry_component_version" rx="2.5" ry="2.5" style="stroke:#000D19;stroke-width:0.5;" width="493" x="7" y="106.79"/><ellipse cx="22" cy="126.6845" fill="#ADD1B2" rx="11" ry="11" style="stroke:#181818;stroke-width:1.0;"/><path d="M24.9688,132.3252 Q24.3906,132.622 23.75,132.7627 Q23.1094,132.9189 22.4063,132.9189 Q19.9063,132.9189 18.5781,131.2783 Q17.2656,129.622 17.2656,126.497 Q17.2656,123.372 18.5781,121.7158 Q19.9063,120.0595 22.4063,120.0595 Q23.1094,120.0595 23.75,120.2158 Q24.4063,120.372 24.9688,120.6689 L24.9688,123.3877 Q24.3438,122.8095 23.75,122.5439 Q23.1563,122.2627 22.5313,122.2627 Q21.1875,122.2627 20.5,123.3408 Q19.8125,124.4033 19.8125,126.497 Q19.8125,128.5908 20.5,129.6689 Q21.1875,130.7314 22.5313,130.7314 Q23.1563,130.7314 23.75,130.4658 Q24.3438,130.1845 24.9688,129.6064 L24.9688,132.3252 Z " fill="#000000"/><text fill="#D9B8FF" font-family="Helvetica" font-size="17" lengthAdjust="spacing" textLength="451" x="41" y="132.5698">azure_machine_learning_registry_component_version</text></g><!--class azure_machine_learning_workspace--><g id="elem_azure_machine_learning_workspace"><rect codeLine="32" fill="#3D176E" height="39.7891" id="azure_machine_learning_workspace" rx="2.5" ry="2.5" style="stroke:#000D19;stroke-width:0.5;" width="344" x="635.5" y="7"/><ellipse cx="650.5" cy="26.8945" fill="#ADD1B2" rx="11" ry="11" style="stroke:#181818;stroke-width:1.0;"/><path d="M653.4688,32.5352 Q652.8906,32.832 652.25,32.9727 Q651.6094,33.1289 650.9063,33.1289 Q648.4063,33.1289 647.0781,31.4883 Q645.7656,29.832 645.7656,26.707 Q645.7656,23.582 647.0781,21.9258 Q648.4063,20.2695 650.9063,20.2695 Q651.6094,20.2695 652.25,20.4258 Q652.9063,20.582 653.4688,20.8789 L653.4688,23.5977 Q652.8438,23.0195 652.25,22.7539 Q651.6563,22.4727 651.0313,22.4727 Q649.6875,22.4727 649,23.5508 Q648.3125,24.6133 648.3125,26.707 Q648.3125,28.8008 649,29.8789 Q649.6875,30.9414 651.0313,30.9414 Q651.6563,30.9414 652.25,30.6758 Q652.8438,30.3945 653.4688,29.8164 L653.4688,32.5352 Z " fill="#000000"/><text fill="#D9B8FF" font-family="Helvetica" font-size="17" lengthAdjust="spacing" textLength="302" x="669.5" y="32.7798">azure_machine_learning_workspace</text></g><!--class azure_machine_learning_workspace_component_version--><g id="elem_azure_machine_learning_workspace_component_version"><rect codeLine="35" fill="#3D176E" height="39.7891" id="azure_machine_learning_workspace_component_version" rx="2.5" ry="2.5" style="stroke:#000D19;stroke-width:0.5;" width="517" x="970" y="106.79"/><ellipse cx="985" cy="126.6845" fill="#ADD1B2" rx="11" ry="11" style="stroke:#181818;stroke-width:1.0;"/><path d="M987.9688,132.3252 Q987.3906,132.622 986.75,132.7627 Q986.1094,132.9189 985.4063,132.9189 Q982.9063,132.9189 981.5781,131.2783 Q980.2656,129.622 980.2656,126.497 Q980.2656,123.372 981.5781,121.7158 Q982.9063,120.0595 985.4063,120.0595 Q986.1094,120.0595 986.75,120.2158 Q987.4063,120.372 987.9688,120.6689 L987.9688,123.3877 Q987.3438,122.8095 986.75,122.5439 Q986.1563,122.2627 985.5313,122.2627 Q984.1875,122.2627 983.5,123.3408 Q982.8125,124.4033 982.8125,126.497 Q982.8125,128.5908 983.5,129.6689 Q984.1875,130.7314 985.5313,130.7314 Q986.1563,130.7314 986.75,130.4658 Q987.3438,130.1845 987.9688,129.6064 L987.9688,132.3252 Z " fill="#000000"/><text fill="#D9B8FF" font-family="Helvetica" font-size="17" lengthAdjust="spacing" textLength="475" x="1004" y="132.5698">azure_machine_learning_workspace_component_version</text></g><!--link azure_machine_learning_compute to azure_machine_learning_job--><g id="link_azure_machine_learning_compute_azure_machine_learning_job"><path codeLine="38" d="M720.84,147.01 C739.77,164.15 762.8433,185.0317 781.7633,202.1717 " fill="none" id="azure_machine_learning_compute-to-azure_machine_learning_job" style="stroke:#1A83AF;stroke-width:2.0;"/><polygon fill="#1A83AF" points="786.21,206.2,782.2256,197.1931,782.5045,202.8431,776.8545,203.122,786.21,206.2" style="stroke:#1A83AF;stroke-width:2.0;"/></g><!--link azure_machine_learning_registry_component_version to azure_machine_learning_job--><g id="link_azure_machine_learning_registry_component_version_azure_machine_learning_job"><path codeLine="39" d="M363.28,147.06 C460.28,164.19 595.0913,187.987 692.0213,205.097 " fill="none" id="azure_machine_learning_registry_component_version-to-azure_machine_learning_job" style="stroke:#1A83AF;stroke-width:2.0;"/><polygon fill="#1A83AF" points="697.93,206.14,689.7623,200.6364,693.0061,205.2708,688.3717,208.5146,697.93,206.14" style="stroke:#1A83AF;stroke-width:2.0;"/></g><!--link azure_machine_learning_workspace to azure_machine_learning_compute--><g id="link_azure_machine_learning_workspace_azure_machine_learning_compute"><path codeLine="40" d="M786.16,47.22 C767.23,64.36 744.1567,85.2417 725.2367,102.3817 " fill="none" id="azure_machine_learning_workspace-to-azure_machine_learning_compute" style="stroke:#1A83AF;stroke-width:2.0;"/><polygon fill="#1A83AF" points="720.79,106.41,730.1455,103.332,724.4955,103.0531,724.7744,97.4031,720.79,106.41" style="stroke:#1A83AF;stroke-width:2.0;"/></g><!--link azure_machine_learning_workspace to azure_machine_learning_job--><g id="link_azure_machine_learning_workspace_azure_machine_learning_job"><path codeLine="41" d="M833.73,47.06 C850.91,61.35 871.9,82.52 881.5,106.79 C888.01,123.24 888.01,130.14 881.5,146.58 C871.9,170.85 855.5242,188.1947 838.3442,202.4747 " fill="none" id="azure_machine_learning_workspace-to-azure_machine_learning_job" style="stroke:#1A83AF;stroke-width:2.0;"/><polygon fill="#1A83AF" points="833.73,206.31,843.2081,203.6332,837.5751,203.1139,838.0944,197.481,833.73,206.31" style="stroke:#1A83AF;stroke-width:2.0;"/></g><!--link azure_machine_learning_workspace_component_version to azure_machine_learning_job--><g id="link_azure_machine_learning_workspace_component_version_azure_machine_learning_job"><path codeLine="42" d="M1145.07,147.06 C1071.36,164.19 970.2744,187.6726 896.6044,204.7826 " fill="none" id="azure_machine_learning_workspace_component_version-to-azure_machine_learning_job" style="stroke:#1A83AF;stroke-width:2.0;"/><polygon fill="#1A83AF" points="890.76,206.14,900.4316,208.0002,895.6304,205.0088,898.6217,200.2076,890.76,206.14" style="stroke:#1A83AF;stroke-width:2.0;"/></g><!--SRC=[hPDTJy8m58RlzokQS4t290hSc4mIeZV4Y7V6B5rxokhMTZaj433-TyU7MZSP8tZRy-pzE3bB9GS2gd1hea0bW3QmcTG5HQf8X6XMOvCR91qXgEWFgiE9qUuaCAKAo3taIt2IqIhnd4gMQR2MN7cZEygoEPg5vdjvXrJRSWJQUTGufzP6pg5C5WwyC7oK38MeabNHJf-7WnkeOGOvu07fzNey75MHarQDlR-9cTm02VsbJOs3MioQnOvgJBabl92reb_penaVAUTIpycrz_QqpuGQyDVxBANShBQqeBdrRQm31EFM1OnhhM0qv6Bm9_nm30xOTdM4RXO8iQ8ibHhY72ZgqZrcHXNb7P3t8FXe9jzCqe92c4lhSBqJDhgylNXP_Y7Iw1OVhmncvSKoE8SzvdIYSFUb4qR3VZHvxTusL0xExtcXyiyIsWWTwloFM9jK5nJ-1000]--></g></svg>

<svg xmlns="http://www.w3.org/2000/svg" width="1494" height="252" viewBox="0 0 1494 252"><rect width="329" height="39.789" x="535" y="106.79" fill="#3D176E" rx="2.5" ry="2.5" style="stroke:#000d19;stroke-width:.5"/><circle cx="550" cy="126.684" r="11" fill="#ADD1B2" style="stroke:#181818;stroke-width:1"/><path d="M552.969 132.325q-.578.297-1.219.438-.64.156-1.344.156-2.5 0-3.828-1.64-1.312-1.657-1.312-4.782t1.312-4.781q1.328-1.656 3.828-1.656.703 0 1.344.156.656.156 1.219.453v2.719q-.625-.579-1.219-.844-.594-.281-1.219-.281-1.343 0-2.031 1.078-.687 1.062-.687 3.156t.687 3.172q.688 1.062 2.031 1.062.625 0 1.219-.265.594-.281 1.219-.86z"/><text x="569" y="132.57" fill="#D9B8FF" font-family="Helvetica" font-size="17" textLength="287">azure_machine_learning_compute</text><rect width="281" height="39.789" x="667" y="206.58" fill="#3D176E" rx="2.5" ry="2.5" style="stroke:#000d19;stroke-width:.5"/><circle cx="682" cy="226.475" r="11" fill="#ADD1B2" style="stroke:#181818;stroke-width:1"/><path d="M684.969 232.115q-.578.297-1.219.438-.64.156-1.344.156-2.5 0-3.828-1.64-1.312-1.657-1.312-4.782t1.312-4.781q1.328-1.656 3.828-1.656.703 0 1.344.156.656.156 1.219.453v2.719q-.625-.578-1.219-.844-.594-.281-1.219-.281-1.343 0-2.031 1.078-.687 1.062-.687 3.156t.687 3.172q.688 1.062 2.031 1.062.625 0 1.219-.265.594-.281 1.219-.86z"/><text x="701" y="232.36" fill="#D9B8FF" font-family="Helvetica" font-size="17" textLength="239">azure_machine_learning_job</text><rect width="493" height="39.789" x="7" y="106.79" fill="#3D176E" rx="2.5" ry="2.5" style="stroke:#000d19;stroke-width:.5"/><circle cx="22" cy="126.684" r="11" fill="#ADD1B2" style="stroke:#181818;stroke-width:1"/><path d="M24.969 132.325q-.578.297-1.219.438-.64.156-1.344.156-2.5 0-3.828-1.64-1.312-1.657-1.312-4.782t1.312-4.781q1.328-1.656 3.828-1.656.703 0 1.344.156.656.156 1.219.453v2.719q-.625-.579-1.219-.844-.594-.281-1.219-.281-1.343 0-2.031 1.078-.687 1.062-.687 3.156t.687 3.172q.688 1.062 2.031 1.062.625 0 1.219-.265.594-.281 1.219-.86z"/><text x="41" y="132.57" fill="#D9B8FF" font-family="Helvetica" font-size="17" textLength="451">azure_machine_learning_registry_component_version</text><rect width="344" height="39.789" x="635.5" y="7" fill="#3D176E" rx="2.5" ry="2.5" style="stroke:#000d19;stroke-width:.5"/><circle cx="650.5" cy="26.895" r="11" fill="#ADD1B2" style="stroke:#181818;stroke-width:1"/><path d="M653.469 32.535q-.578.297-1.219.438-.64.156-1.344.156-2.5 0-3.828-1.64-1.312-1.657-1.312-4.782t1.312-4.781q1.328-1.656 3.828-1.656.703 0 1.344.156.656.156 1.219.453v2.719q-.625-.578-1.219-.844-.594-.281-1.219-.281-1.343 0-2.031 1.078-.687 1.062-.687 3.156t.687 3.172q.688 1.062 2.031 1.062.625 0 1.219-.265.594-.281 1.219-.86z"/><text x="669.5" y="32.78" fill="#D9B8FF" font-family="Helvetica" font-size="17" textLength="302">azure_machine_learning_workspace</text><rect width="517" height="39.789" x="970" y="106.79" fill="#3D176E" rx="2.5" ry="2.5" style="stroke:#000d19;stroke-width:.5"/><circle cx="985" cy="126.684" r="11" fill="#ADD1B2" style="stroke:#181818;stroke-width:1"/><path d="M987.969 132.325q-.578.297-1.219.438-.64.156-1.344.156-2.5 0-3.828-1.64-1.312-1.657-1.312-4.782t1.312-4.781q1.328-1.656 3.828-1.656.703 0 1.344.156.656.156 1.219.453v2.719q-.625-.579-1.219-.844-.594-.281-1.219-.281-1.343 0-2.031 1.078-.687 1.062-.687 3.156t.687 3.172q.688 1.062 2.031 1.062.625 0 1.219-.265.594-.281 1.219-.86z"/><text x="1004" y="132.57" fill="#D9B8FF" font-family="Helvetica" font-size="17" textLength="475">azure_machine_learning_workspace_component_version</text><path fill="none" d="M720.84 147.01c18.93 17.14 42.003 38.022 60.923 55.162" style="stroke:#1a83af;stroke-width:2"/><path fill="#1A83AF" d="m786.21 206.2-3.984-9.007.279 5.65-5.65.279z" style="stroke:#1a83af;stroke-width:2"/><path fill="none" d="M363.28 147.06c97 17.13 231.811 40.927 328.741 58.037" style="stroke:#1a83af;stroke-width:2"/><path fill="#1A83AF" d="m697.93 206.14-8.168-5.504 3.244 4.635-4.634 3.244z" style="stroke:#1a83af;stroke-width:2"/><path fill="none" d="M786.16 47.22c-18.93 17.14-42.003 38.022-60.923 55.162" style="stroke:#1a83af;stroke-width:2"/><path fill="#1A83AF" d="m720.79 106.41 9.356-3.078-5.65-.279.278-5.65z" style="stroke:#1a83af;stroke-width:2"/><path fill="none" d="M833.73 47.06c17.18 14.29 38.17 35.46 47.77 59.73 6.51 16.45 6.51 23.35 0 39.79-9.6 24.27-25.976 41.615-43.156 55.895" style="stroke:#1a83af;stroke-width:2"/><path fill="#1A83AF" d="m833.73 206.31 9.478-2.677-5.633-.52.52-5.632z" style="stroke:#1a83af;stroke-width:2"/><path fill="none" d="M1145.07 147.06c-73.71 17.13-174.796 40.613-248.466 57.723" style="stroke:#1a83af;stroke-width:2"/><path fill="#1A83AF" d="m890.76 206.14 9.672 1.86-4.802-2.991 2.992-4.801z" style="stroke:#1a83af;stroke-width:2"/></svg>
